X:343
T: KLEINE BLUMEN KLEINE BLAETTER
N: B0404
O: Europa, Mitteleuropa, Deutschland, Lausitz
R: Liebes - Lied, Liebes - Lust
M: 3/4
L: 1/16
K: G
 | G2B2d2d2cBAG | G2F2F4z4 |
D3cc2c2d3c | c4B4z4 |
G2g2g2g2agfe | e2d2d4z4 |
F2d2d2d2c2F2 | A4G4z4

@@@ Tune index: 2146
